src/actions/symbolic/path-fracture-symbolic.svg

<svg width="16" height="16" version="1.1" viewBox="0 0 16 16" xmlns="http://www.w3.org/2000/svg">
 <style>.success { fill:#009909; }
.warning { fill:#FF1990; }
.error { fill:#00AAFF; }</style>
 <path d="m5 5v4.9609a4.5 4.5 0 0 0 0.5 0.039062 4.5 4.5 0 0 0 0.5-0.039062v-3.9609h3.9609a4.5 4.5 0 0 0 0.039062-0.5 4.5 4.5 0 0 0-0.029297-0.5h-4.9707zm5.9766 0a5.5 5.5 0 0 1 0.023438 0.5 5.5 5.5 0 0 1-0.037109 0.5h3.0371v8h-8v-3.0371a5.5 5.5 0 0 1-0.5 0.037109 5.5 5.5 0 0 1-0.5-0.037109v4.0371h10v-10h-4.0234z" fill="#363636" fill-rule="evenodd" stroke-linecap="round" stroke-linejoin="round" stroke-width="2" style="paint-order:stroke fill markers"/>
 <path class="warning" d="m5.5 0a5.5 5.5 0 0 0-5.5 5.5 5.5 5.5 0 0 0 4 5.2871v-1.0547a4.5 4.5 0 0 1-3-4.2324 4.5 4.5 0 0 1 4.5-4.5 4.5 4.5 0 0 1 4.2422 3h1.0488a5.5 5.5 0 0 0-5.291-4z" fill="#363636" fill-rule="evenodd" stroke-linecap="round" stroke-linejoin="round" stroke-width="2" style="paint-order:stroke fill markers"/>
 <path d="m6 6v3.9609a4.5 4.5 0 0 0 3.9609-3.9609h-3.9609zm4.9629 0a5.5 5.5 0 0 1-4.9629 4.9629v3.0371h8v-8h-3.0371z" fill="#363636" fill-rule="evenodd" opacity=".5" stroke-linecap="round" stroke-linejoin="round" stroke-width="2" style="paint-order:stroke fill markers"/>
 <path class="warning" d="m5.5 1a4.5 4.5 0 0 0-4.5 4.5 4.5 4.5 0 0 0 3 4.2324v-5.7324h5.7422a4.5 4.5 0 0 0-4.2422-3z" fill="#363636" fill-rule="evenodd" opacity=".5" stroke-linecap="round" stroke-linejoin="round" stroke-width="2" style="paint-order:stroke fill markers"/>
</svg>

<svg xmlns="http://www.w3.org/2000/svg" width="16" height="16">
    <style>
        .warning{fill:#f4b9be}
    </style>
    <path fill="#050505" fill-opacity=".7" fill-rule="evenodd" stroke-linecap="round" stroke-linejoin="round" stroke-width="2" d="M5 5v4.96a4.5 4.5 0 0 0 .5.04 4.5 4.5 0 0 0 .5-.04V6h3.96a4.5 4.5 0 0 0 .04-.5 4.5 4.5 0 0 0-.03-.5H5zm5.977 0a5.5 5.5 0 0 1 .023.5 5.5 5.5 0 0 1-.037.5H14v8H6v-3.037a5.5 5.5 0 0 1-.5.037 5.5 5.5 0 0 1-.5-.037V15h10V5h-4.023z" style="paint-order:stroke fill markers"/>
    <path fill="#050505" fill-opacity=".7" fill-rule="evenodd" stroke-linecap="round" stroke-linejoin="round" stroke-width="2" d="M5.5 0A5.5 5.5 0 0 0 0 5.5a5.5 5.5 0 0 0 4 5.287V9.732A4.5 4.5 0 0 1 1 5.5 4.5 4.5 0 0 1 5.5 1a4.5 4.5 0 0 1 4.242 3h1.049A5.5 5.5 0 0 0 5.5 0z" class="warning" style="paint-order:stroke fill markers"/>
    <path fill="#050505" fill-opacity=".7" fill-rule="evenodd" stroke-linecap="round" stroke-linejoin="round" stroke-width="2" d="M6 6v3.96A4.5 4.5 0 0 0 9.96 6H6zm4.963 0A5.5 5.5 0 0 1 6 10.963V14h8V6h-3.037z" opacity=".5" style="paint-order:stroke fill markers"/>
    <path fill="#050505" fill-opacity=".7" fill-rule="evenodd" stroke-linecap="round" stroke-linejoin="round" stroke-width="2" d="M5.5 1A4.5 4.5 0 0 0 1 5.5a4.5 4.5 0 0 0 3 4.232V4h5.742A4.5 4.5 0 0 0 5.5 1z" class="warning" opacity=".5" style="paint-order:stroke fill markers"/>
</svg>
